src/img/svg/tel.svg

<svg width="16" height="17" viewBox="0 0 16 17" fill="none" xmlns="http://www.w3.org/2000/svg">
<path fill-rule="evenodd" clip-rule="evenodd" d="M12.5556 10.3578C13.5364 10.9028 14.5176 11.4478 15.4983 11.9929C15.9205 12.2272 16.1056 12.7246 15.9394 13.1782C15.0957 15.4833 12.6244 16.7 10.2992 15.8513C5.53799 14.1134 2.0086 10.584 0.270693 5.82278C-0.577964 3.49763 0.638733 1.02635 2.94385 0.182564C3.39741 0.016405 3.8948 0.201507 4.1297 0.623671C4.67418 1.60439 5.21921 2.58565 5.76423 3.56637C6.01969 4.02642 5.95961 4.57252 5.60998 4.96546C5.15209 5.48071 4.69421 5.99597 4.23632 6.51068C5.21379 8.89104 7.23098 10.9082 9.61133 11.8857C10.126 11.4278 10.6413 10.9699 11.1566 10.512C11.55 10.1624 12.0956 10.1023 12.5556 10.3578Z" fill="white"/>
</svg>

<svg xmlns="http://www.w3.org/2000/svg" width="16" height="17" fill="none"><path fill="#fff" fill-rule="evenodd" d="m12.556 10.358 2.942 1.635a.967.967 0 0 1 .441 1.185c-.843 2.305-3.315 3.522-5.64 2.673C5.538 14.113 2.01 10.584.271 5.823-.578 3.498.639 1.026 2.944.183a.968.968 0 0 1 1.186.44l1.634 2.943c.256.46.196 1.007-.154 1.4L4.236 6.51c.978 2.38 2.995 4.397 5.375 5.375l1.546-1.374c.393-.35.939-.41 1.399-.154Z" clip-rule="evenodd"/></svg>
